images/Services/Hand.svg

<svg width="108" height="106" viewBox="0 0 108 106"  xmlns="http://www.w3.org/2000/svg">
<g clip-path="url(#clip0)">
<path d="M106.239 45.5534V13.963C106.197 11.144 105.313 8.40247 103.702 6.09259C102.091 3.78271 99.8257 2.01067 97.1999 1.00544C90.5495 -1.58795 83.5243 1.25914 79.1781 4.76397C73.2114 9.61248 70.5606 16.9792 71.0757 27.3152C71.3347 31.8138 72.0152 36.2779 73.1084 40.6486L73.1739 40.9492C73.6704 43.148 74.0169 44.642 74.3729 45.6474C73.8716 46.1362 73.4725 46.7203 73.1991 47.3657C72.9257 48.0111 72.7834 48.7047 72.7805 49.4059V58.2385C72.7706 59.2629 73.0574 60.2682 73.6061 61.1322C74.1549 61.9962 74.9419 62.6819 75.8716 63.1058C75.8716 64.7783 75.9746 66.4321 76.0777 68.0389C76.1901 69.8242 76.3025 71.6658 76.3025 73.4605C76.3025 73.9291 76.488 74.3784 76.8182 74.7097C77.1485 75.0409 77.5964 75.2271 78.0634 75.2271C78.5305 75.2271 78.9784 75.0409 79.3086 74.7097C79.6389 74.3784 79.8244 73.9291 79.8244 73.4605C79.8244 71.5813 79.7026 69.655 79.5902 67.8227C79.5059 66.4415 79.431 65.0038 79.4029 63.6132H100.357L100.516 65.3797C101.328 71.4568 101.097 77.6286 99.832 83.6274C97.5465 92.8076 92.4509 98.6615 84.6764 100.964C76.1432 103.519 67.048 102.185 58.2525 100.888L56.8756 100.691C54.3746 100.325 51.1524 99.9394 47.8084 99.5354C42.9939 98.9528 38.0201 98.3514 34.4888 97.7501C33.346 97.5527 32.2032 97.3366 31.0417 97.1205C26.326 96.0586 21.5061 95.5322 16.673 95.5513H12.5984C12.274 95.5552 11.9549 95.4696 11.6757 95.3039C11.3965 95.1382 11.1681 94.8988 11.0154 94.6117L6.04158 85.1308C5.89179 84.8415 5.83914 84.5115 5.89146 84.1898C5.94379 83.8681 6.09828 83.572 6.33195 83.3455L8.43013 81.1937L13.9285 89.3873C14.0595 89.5804 14.2271 89.7458 14.4218 89.8739C14.6165 90.002 14.8345 90.0904 15.0632 90.134C15.292 90.1777 15.5271 90.1757 15.7551 90.1282C15.983 90.0806 16.1995 89.9886 16.392 89.8571C16.5845 89.7257 16.7493 89.5576 16.877 89.3623C17.0047 89.1669 17.0929 88.9483 17.1363 88.7188C17.1798 88.4894 17.1778 88.2535 17.1305 88.0248C17.0831 87.7961 16.9913 87.579 16.8603 87.3859L11.1184 78.8446L11.0154 78.6755C10.7437 78.1963 10.4346 77.6795 10.163 77.1533C9.31998 75.5841 9.11391 74.5787 9.46048 73.7988C9.6351 73.4186 9.91137 73.0943 10.2586 72.8621C10.6059 72.6299 11.0105 72.4988 11.4275 72.4833C11.8875 72.4623 12.3469 72.5347 12.7783 72.6962C13.2096 72.8576 13.604 73.1048 13.9378 73.423C15.6145 74.9452 17.2725 76.4956 18.9304 78.046C21.3939 80.3387 23.9229 82.7441 26.5082 84.971C30.9106 88.8329 37.2988 89.2652 43.4529 89.3122C49.5824 89.4219 55.7135 89.2117 61.8213 88.6826C62.2812 88.6442 62.7075 88.4253 63.0074 88.0734C63.3073 87.7215 63.4567 87.2651 63.423 86.8033C63.4088 86.5723 63.3488 86.3465 63.2465 86.1391C63.1442 85.9316 63.0016 85.7468 62.8271 85.5954C62.6526 85.444 62.4497 85.329 62.2303 85.2573C62.011 85.1856 61.7796 85.1586 61.5496 85.1778C55.5605 85.7024 49.5481 85.9125 43.5372 85.8073C38.0294 85.7322 32.3625 85.4033 28.8499 82.3683C26.3208 80.1695 23.8105 77.811 21.3564 75.5371C19.6704 73.9492 18.0031 72.3518 16.3077 70.8484C15.6136 70.1892 14.7907 69.6819 13.891 69.3584C12.9912 69.0349 12.0344 68.9023 11.081 68.9691C10.0452 69.0402 9.0483 69.3925 8.1969 69.9884C7.3455 70.5843 6.6717 71.4012 6.24765 72.3518C5.89143 73.2618 5.7419 74.24 5.80996 75.2152C5.87801 76.1905 6.16193 77.1382 6.64106 77.9896L3.831 80.8085C3.06666 81.5645 2.56344 82.5459 2.39491 83.6093C2.22638 84.6727 2.40137 85.7623 2.89431 86.7188L7.85875 96.256C8.31013 97.1087 8.98473 97.8217 9.80996 98.3184C10.6352 98.8151 11.5798 99.0767 12.5422 99.0749H16.6823C21.2762 99.0754 25.856 99.5827 30.3392 100.588C31.5101 100.804 32.6716 101.02 33.8331 101.217C37.4487 101.847 42.4693 102.458 47.3307 103.031C50.6372 103.435 53.8313 103.82 56.3042 104.177L57.6811 104.374C62.9879 105.286 68.3536 105.811 73.7359 105.944C77.7548 105.989 81.7589 105.448 85.6225 104.337C94.5491 101.668 100.609 94.7996 103.185 84.473C104.563 78.0962 104.829 71.5282 103.972 65.0602L103.832 63.4722C105.003 63.2097 106.05 62.5548 106.801 61.6155C107.552 60.6761 107.962 59.5083 107.962 58.3043V49.4717C107.959 48.7313 107.801 47.9998 107.497 47.3247C107.194 46.6497 106.752 46.0462 106.202 45.5534H106.239ZM77.5951 44.1628C77.4078 43.4956 77.0986 42.2835 76.6584 40.1787L76.5835 39.8217C75.5367 35.6648 74.8875 31.4172 74.6445 27.1366C74.1762 17.9 76.3306 11.6703 81.4355 7.52649C84.8544 4.7076 90.7087 2.23636 95.9635 4.28476C97.928 5.0326 99.6246 6.35302 100.835 8.07611C102.045 9.79921 102.714 11.8462 102.754 13.9536V44.1628H77.5951ZM104.478 58.2573C104.478 58.7258 104.292 59.1751 103.962 59.5064C103.632 59.8377 103.184 60.0238 102.717 60.0238H78.0634C77.5964 60.0238 77.1485 59.8377 76.8182 59.5064C76.488 59.1751 76.3025 58.7258 76.3025 58.2573V49.4247C76.3025 48.9562 76.488 48.5069 76.8182 48.1756C77.1485 47.8443 77.5964 47.6582 78.0634 47.6582H102.717C103.184 47.6582 103.632 47.8443 103.962 48.1756C104.292 48.5069 104.478 48.9562 104.478 49.4247V58.2573Z" fill="#87AD3B"/>
<path d="M75.8716 92.3378C75.5412 92.0063 75.093 91.8201 74.6258 91.8201C74.1585 91.8201 73.7104 92.0063 73.38 92.3378C73.0496 92.6692 72.864 93.1187 72.864 93.5875C72.864 94.0562 73.0496 94.5057 73.38 94.8372C74.8705 96.3324 76.8921 97.1724 79.0001 97.1724C81.1081 97.1724 83.1297 96.3324 84.6202 94.8372C86.1108 93.342 86.9482 91.314 86.9482 89.1994C86.9482 87.0848 86.1108 85.0568 84.6202 83.5616C84.4566 83.3975 84.2624 83.2673 84.0486 83.1785C83.8349 83.0897 83.6058 83.0439 83.3744 83.0439C83.1431 83.0439 82.914 83.0897 82.7002 83.1785C82.4865 83.2673 82.2922 83.3975 82.1286 83.5616C81.965 83.7257 81.8353 83.9205 81.7467 84.135C81.6582 84.3494 81.6126 84.5792 81.6126 84.8113C81.6126 85.0434 81.6582 85.2732 81.7467 85.4876C81.8353 85.7021 81.965 85.8969 82.1286 86.061C82.5395 86.4732 82.8654 86.9624 83.0877 87.5009C83.3101 88.0394 83.4245 88.6165 83.4245 89.1994C83.4245 89.7822 83.3101 90.3594 83.0877 90.8979C82.8654 91.4364 82.5395 91.9256 82.1286 92.3378C81.7178 92.7499 81.2301 93.0768 80.6933 93.2999C80.1565 93.5229 79.5811 93.6377 79.0001 93.6377C78.4191 93.6377 77.8437 93.5229 77.3069 93.2999C76.7702 93.0768 76.2824 92.7499 75.8716 92.3378Z" fill="#87AD3B"/>
<path d="M30.5453 21.5553L27.0983 25.0131L19.6704 17.59L19.7828 17.4867C20.4006 16.8619 20.7472 16.0176 20.7472 15.1376C20.7472 14.2576 20.4006 13.4133 19.7828 12.7885L18.0031 11.0032C17.3803 10.3835 16.5386 10.0358 15.6614 10.0358C14.7842 10.0358 13.9425 10.3835 13.3197 11.0032L0.936663 23.4064C0.628526 23.7145 0.384042 24.0806 0.217225 24.4837C0.050408 24.8868 -0.0354614 25.319 -0.0354614 25.7554C-0.0354614 26.1919 0.050408 26.6241 0.217225 27.0272C0.384042 27.4303 0.628526 27.7964 0.936663 28.1045L2.707 29.8804C3.32981 30.5001 4.17149 30.8479 5.04872 30.8479C5.92594 30.8479 6.76763 30.5001 7.39044 29.8804L7.49347 29.7771L14.987 37.2096L11.54 40.6674C10.9222 41.2922 10.5756 42.1365 10.5756 43.0165C10.5756 43.8965 10.9222 44.7408 11.54 45.3656L13.3197 47.1415C13.6268 47.4506 13.9918 47.6958 14.3936 47.8632C14.7955 48.0305 15.2263 48.1167 15.6614 48.1167C16.0965 48.1167 16.5273 48.0305 16.9291 47.8632C17.331 47.6958 17.6959 47.4506 18.0031 47.1415L20.0076 45.1025C20.1476 45.3062 20.3043 45.4979 20.476 45.6757L47.4338 72.7183C48.1481 73.431 49.1146 73.831 50.1221 73.831C51.1296 73.831 52.0961 73.431 52.8104 72.7183L53.2132 72.3143L58.4118 72.9438C58.6385 72.9711 58.8684 72.9464 59.0842 72.8715C59.3001 72.7966 59.4961 72.6735 59.6576 72.5116L59.9479 72.2579L77.286 89.6881C77.5745 89.9356 77.9455 90.0649 78.3249 90.0501C78.7043 90.0353 79.0642 89.8775 79.3327 89.6082C79.6011 89.3389 79.7585 88.9779 79.7732 88.5973C79.788 88.2167 79.6591 87.8445 79.4123 87.5551L62.0368 70.1249L62.299 69.8618C62.4682 69.7004 62.5977 69.5019 62.6773 69.2817C62.757 69.0616 62.7846 68.826 62.758 68.5933L62.1304 63.3783L62.5238 62.9837C62.8836 62.6334 63.1695 62.2142 63.3648 61.751C63.5601 61.2877 63.6608 60.7899 63.6608 60.287C63.6608 59.784 63.5601 59.2862 63.3648 58.823C63.1695 58.3597 62.8836 57.9405 62.5238 57.5902L35.5941 30.5664C35.4181 30.3891 35.2233 30.2315 35.0133 30.0965L37.0647 28.0387C37.6824 27.414 38.0291 26.5696 38.0291 25.6897C38.0291 24.8097 37.6824 23.9653 37.0647 23.3406L35.2943 21.5647C34.9847 21.2484 34.6155 20.9971 34.2083 20.8252C33.801 20.6533 33.3637 20.5643 32.9218 20.5635C32.4799 20.5626 32.0423 20.6498 31.6343 20.8201C31.2264 20.9904 30.8562 21.2403 30.5453 21.5553ZM4.87075 27.7569L3.10041 25.9809C3.07124 25.9521 3.04808 25.9177 3.03227 25.8798C3.01645 25.8419 3.00831 25.8012 3.00831 25.7601C3.00831 25.719 3.01645 25.6784 3.03227 25.6405C3.04808 25.6025 3.07124 25.5682 3.10041 25.5393L15.4647 13.155C15.4937 13.1227 15.5291 13.097 15.5686 13.0793C15.6081 13.0617 15.6509 13.0526 15.6942 13.0526C15.7374 13.0526 15.7802 13.0617 15.8197 13.0793C15.8593 13.097 15.8947 13.1227 15.9237 13.155L17.7034 14.9403C17.7325 14.9691 17.7557 15.0035 17.7715 15.0414C17.7873 15.0793 17.7955 15.12 17.7955 15.1611C17.7955 15.2022 17.7873 15.2428 17.7715 15.2808C17.7557 15.3187 17.7325 15.353 17.7034 15.3819L5.31099 27.7569C5.28223 27.7861 5.24796 27.8094 5.21018 27.8252C5.17239 27.8411 5.13183 27.8492 5.09087 27.8492C5.04991 27.8492 5.00935 27.8411 4.97156 27.8252C4.93378 27.8094 4.89951 27.7861 4.87075 27.7569ZM9.95696 27.9448L17.8626 20.0143L24.972 27.1461L17.0664 35.0766L9.95696 27.9448ZM59.6576 68.2456L58.0746 69.8618L55.9389 69.6081L59.4234 66.1127L59.6576 68.2456ZM60.3694 60.8601L59.4328 61.7998L51.574 69.6833L50.6373 70.6229C50.488 70.7721 50.2859 70.8559 50.0753 70.8559C49.8646 70.8559 49.6625 70.7721 49.5133 70.6229L26.0773 46.9818L36.8867 36.176L41.0456 40.4043L38.4041 43.0447C38.1573 43.3341 38.0285 43.7063 38.0432 44.0869C38.058 44.4675 38.2153 44.8285 38.4838 45.0978C38.7523 45.3671 39.1121 45.5249 39.4915 45.5397C39.8709 45.5545 40.2419 45.4252 40.5304 45.1777L43.2094 42.4903L46.4035 45.6851L43.7245 48.3724C43.4777 48.6618 43.3488 49.034 43.3636 49.4146C43.3784 49.7952 43.5357 50.1562 43.8042 50.4255C44.0726 50.6948 44.4325 50.8526 44.8119 50.8674C45.1913 50.8822 45.5623 50.753 45.8508 50.5054L48.5297 47.818L51.7238 51.0222L49.0449 53.7095C48.9047 53.8493 48.7935 54.0154 48.7175 54.1984C48.6416 54.3815 48.6025 54.5778 48.6025 54.776C48.6025 54.9743 48.6416 55.1705 48.7175 55.3536C48.7935 55.5366 48.9047 55.7028 49.0449 55.8425C49.3286 56.122 49.7104 56.2785 50.108 56.2785C50.5057 56.2785 50.8875 56.122 51.1712 55.8425L53.8501 53.1551L57.0348 56.3499L54.3278 59.0372C54.0492 59.3219 53.8931 59.7048 53.8931 60.1037C53.8931 60.5026 54.0492 60.8856 54.3278 61.1702C54.4671 61.3108 54.6328 61.4224 54.8152 61.4986C54.9977 61.5748 55.1933 61.614 55.391 61.614C55.5886 61.614 55.7843 61.5748 55.9667 61.4986C56.1492 61.4224 56.3148 61.3108 56.4541 61.1702L59.133 58.4829L60.3788 59.742C60.4516 59.8159 60.509 59.9035 60.5479 59.9998C60.5869 60.0961 60.6064 60.1991 60.6056 60.303C60.6047 60.4069 60.5834 60.5096 60.5429 60.6052C60.5024 60.7008 60.4434 60.7874 60.3694 60.8601ZM33.421 32.6711L34.7604 34.0148L23.9511 44.8864L22.6022 43.5427C22.4978 43.4237 22.4306 43.2765 22.4089 43.1194C22.3873 42.9624 22.4121 42.8024 22.4805 42.6594L32.5405 32.5396C32.6863 32.4747 32.8482 32.4552 33.0052 32.4836C33.1622 32.5121 33.3071 32.5873 33.421 32.6993V32.6711ZM34.8916 25.436C34.9207 25.4648 34.9439 25.4992 34.9597 25.5371C34.9755 25.575 34.9837 25.6157 34.9837 25.6568C34.9837 25.6979 34.9755 25.7385 34.9597 25.7765C34.9439 25.8144 34.9207 25.8487 34.8916 25.8776L30.6109 30.1717C30.4537 30.2806 30.3064 30.4033 30.1707 30.5382L20.476 40.2822C20.3471 40.4241 20.2282 40.5748 20.12 40.7332L15.8394 45.0179C15.8106 45.0472 15.7763 45.0704 15.7385 45.0863C15.7007 45.1021 15.6602 45.1103 15.6192 45.1103C15.5783 45.1103 15.5377 45.1021 15.4999 45.0863C15.4621 45.0704 15.4279 45.0472 15.3991 45.0179L13.6194 43.2232C13.5902 43.1944 13.5671 43.16 13.5513 43.1221C13.5354 43.0842 13.5273 43.0435 13.5273 43.0024C13.5273 42.9613 13.5354 42.9206 13.5513 42.8827C13.5671 42.8448 13.5902 42.8104 13.6194 42.7816L17.0664 39.3237L29.2433 27.1085L32.6904 23.6507C32.75 23.591 32.8309 23.5575 32.9152 23.5575C32.9994 23.5575 33.0803 23.591 33.14 23.6507L34.8916 25.436Z" fill="#87AD3B"/>
</g>
<defs>
<clipPath id="clip0">
<rect width="108" height="106" fill="white"/>
</clipPath>
</defs>
</svg>

<?xml-stylesheet type="text/css" href="./css/style.min.css"?>

<?xml-stylesheet type="text/css" href="/css/style.min.css"?><svg viewBox="0 0 108 106" xmlns="http://www.w3.org/2000/svg"><g clip-path="url(#clip0)" fill="#87AD3B"><path d="M106.239 45.553v-31.59a14.127 14.127 0 00-2.537-7.87A14.055 14.055 0 0097.2 1.005c-6.65-2.593-13.676.254-18.022 3.759-5.967 4.848-8.617 12.215-8.102 22.551.259 4.499.94 8.963 2.032 13.334l.066.3c.496 2.199.843 3.693 1.199 4.698a5.272 5.272 0 00-1.593 3.759v8.833a5.303 5.303 0 00.826 2.893 5.28 5.28 0 002.266 1.974c0 1.672.103 3.326.206 4.933.112 1.785.224 3.627.224 5.421 0 .47.186.918.516 1.25a1.759 1.759 0 003.006-1.25c0-1.879-.121-3.805-.234-5.637-.084-1.381-.159-2.82-.187-4.21h20.954l.159 1.767a53.866 53.866 0 01-.684 18.247c-2.285 9.18-7.381 15.035-15.156 17.337-8.533 2.555-17.628 1.221-26.424-.076l-1.376-.197c-2.501-.366-5.724-.752-9.068-1.156-4.814-.582-9.788-1.184-13.32-1.785-1.142-.197-2.285-.413-3.446-.63a64.25 64.25 0 00-14.369-1.569h-4.075a1.766 1.766 0 01-1.583-.94l-4.973-9.48a1.517 1.517 0 01.29-1.785l2.098-2.152 5.498 8.193a1.776 1.776 0 001.827.741 1.771 1.771 0 001.381-1.41 1.785 1.785 0 00-.276-1.332l-5.742-8.541-.103-.17c-.271-.479-.58-.995-.852-1.522-.843-1.569-1.05-2.574-.703-3.354a2.263 2.263 0 011.967-1.316 3.409 3.409 0 012.51.94 461.17 461.17 0 014.993 4.623c2.464 2.293 4.993 4.698 7.578 6.925 4.403 3.862 10.79 4.294 16.945 4.341 6.13.11 12.26-.1 18.368-.63a1.75 1.75 0 001.186-.609c.3-.351.45-.808.416-1.27a1.743 1.743 0 00-1.193-1.546 1.728 1.728 0 00-.68-.08 171.91 171.91 0 01-18.013.63c-5.508-.075-11.175-.404-14.687-3.439-2.53-2.198-5.04-4.557-7.494-6.83-1.686-1.589-3.353-3.186-5.048-4.69a6.9 6.9 0 00-5.227-1.879 5.711 5.711 0 00-2.884 1.02 5.737 5.737 0 00-1.95 2.363 6.596 6.596 0 00.394 5.638l-2.81 2.819a5.051 5.051 0 00-.937 5.91l4.965 9.537a5.302 5.302 0 001.951 2.062c.825.497 1.77.759 2.732.757h4.14c4.594 0 9.174.508 13.657 1.513 1.171.216 2.333.432 3.494.629 3.616.63 8.636 1.241 13.498 1.814 3.306.404 6.5.789 8.973 1.146l1.377.197a110.976 110.976 0 0016.055 1.57 41.335 41.335 0 0011.886-1.607c8.927-2.669 14.987-9.537 17.563-19.864a56.67 56.67 0 00.787-19.413l-.14-1.588a5.28 5.28 0 002.969-1.857 5.303 5.303 0 001.161-3.31v-8.833a5.28 5.28 0 00-1.76-3.919h.037zm-28.644-1.39c-.187-.667-.496-1.88-.937-3.984l-.075-.357a67.647 67.647 0 01-1.939-12.685c-.468-9.237 1.687-15.467 6.791-19.61 3.42-2.82 9.274-5.29 14.528-3.242a10.535 10.535 0 014.872 3.791 10.578 10.578 0 011.919 5.878v30.209H77.595zm26.883 14.094a1.762 1.762 0 01-1.761 1.767H78.063c-.467 0-.915-.186-1.245-.518a1.77 1.77 0 01-.516-1.249v-8.832a1.762 1.762 0 011.761-1.767h24.654a1.767 1.767 0 011.761 1.767v8.832z"/><path d="M75.872 92.338a1.759 1.759 0 00-3.008 1.25c0 .468.186.918.516 1.25A7.935 7.935 0 0079 97.171c2.108 0 4.13-.84 5.62-2.335a7.986 7.986 0 002.328-5.638 7.986 7.986 0 00-2.328-5.637 1.761 1.761 0 00-3.007 1.25 1.773 1.773 0 00.516 1.249 4.438 4.438 0 011.295 3.138 4.45 4.45 0 01-1.295 3.139 4.424 4.424 0 01-3.129 1.3 4.414 4.414 0 01-3.128-1.3z"/><path d="M30.545 21.555l-3.447 3.458-7.428-7.423.113-.103a3.341 3.341 0 000-4.698l-1.78-1.786a3.32 3.32 0 00-4.683 0L.937 23.406a3.317 3.317 0 00-.972 2.35 3.326 3.326 0 00.972 2.349l1.77 1.775a3.32 3.32 0 004.683 0l.103-.103 7.494 7.433-3.447 3.457a3.341 3.341 0 000 4.699l1.78 1.776a3.306 3.306 0 002.341.975 3.298 3.298 0 002.342-.975l2.005-2.04c.14.204.296.396.468.574l26.958 27.042a3.806 3.806 0 005.376 0l.403-.404 5.199.63a1.503 1.503 0 001.246-.432l.29-.254 17.338 17.43a1.505 1.505 0 002.487-1.09 1.516 1.516 0 00-.36-1.043l-17.376-17.43.262-.263a1.512 1.512 0 00.459-1.269l-.628-5.215.394-.394a3.758 3.758 0 001.137-2.697 3.768 3.768 0 00-1.137-2.697l-26.93-27.024a3.438 3.438 0 00-.58-.47l2.05-2.057a3.341 3.341 0 000-4.698l-1.77-1.776a3.334 3.334 0 00-2.372-1.002 3.325 3.325 0 00-2.377.992zM4.871 27.757L3.1 25.98a.31.31 0 010-.442l12.364-12.384a.31.31 0 01.459 0l1.78 1.785a.31.31 0 010 .442L5.31 27.757a.309.309 0 01-.44 0zm5.086.188l7.906-7.93 7.109 7.131-7.906 7.93-7.109-7.131zm49.7 40.3l-1.582 1.617-2.136-.254 3.484-3.495.235 2.133zm.712-7.385l-.936.94-7.859 7.883-.937.94a.795.795 0 01-1.124 0L26.077 46.982l10.81-10.806 4.159 4.228-2.642 2.64a1.516 1.516 0 00.08 2.054 1.506 1.506 0 002.046.08l2.68-2.688 3.194 3.195-2.68 2.687a1.516 1.516 0 001.088 2.495c.38.015.75-.114 1.039-.362l2.679-2.687 3.194 3.204-2.68 2.688a1.506 1.506 0 000 2.133 1.515 1.515 0 002.127 0l2.68-2.688 3.184 3.195-2.707 2.687a1.525 1.525 0 000 2.133 1.5 1.5 0 001.639.329 1.5 1.5 0 00.487-.329l2.679-2.687 1.246 1.259a.787.787 0 01.164.863.789.789 0 01-.174.255zM33.421 32.671l1.34 1.344-10.81 10.871-1.349-1.343a.81.81 0 01-.122-.884l10.06-10.12a.795.795 0 01.881.16v-.028zm1.47-7.235a.31.31 0 010 .442l-4.28 4.294a3.248 3.248 0 00-.44.366l-9.695 9.744a4.162 4.162 0 00-.356.451l-4.28 4.285a.31.31 0 01-.44 0l-1.78-1.795a.309.309 0 01-.069-.34.309.309 0 01.068-.101l3.447-3.458 12.177-12.215 3.447-3.458a.318.318 0 01.45 0l1.752 1.785z"/></g><defs><clipPath id="clip0"><path fill="#fff" d="M0 0h108v106H0z"/></clipPath></defs></svg>
